X: 1
T: Tyskan lever
Z: John Chambers <jc@trillian.mit.edu>
R: shottish
M: 4/4
L: 1/8
K: D
|: "D"D2 FE D2 EF | "G"G2 B2 G2 B2 | "A7"A2 cB A2 Bc |1,3 "D"d2 fd "(A)"AG FE :|2,4 "D"d2 f2 d4 :|
|: "G"~B2 AB g2 fe | "D"d2 fd A4 |1,3 "A7"Ac ec Ac ec | "D"d2 fd AG FA :|2,4 "A7"Ac ec AG FE | "D"D2 FA d4 :|
